app/images/dist/games.svg

<svg width="19" height="19" viewBox="0 0 19 19" fill="none" xmlns="http://www.w3.org/2000/svg">
<g clip-path="url(#clip0_90_7282)">
<path d="M18.1208 0.101562H8.14016C7.73111 0.101562 7.38343 0.428796 7.38343 0.85829V7.40296H0.838759C0.429717 7.40296 0.0820312 7.7302 0.0820312 8.15969V10.4299V10.5117V18.1812C0.0820312 18.5903 0.409265 18.9379 0.838759 18.9379H10.8398C11.2489 18.9379 11.5966 18.6107 11.5966 18.1812V11.6365H18.1412C18.5503 11.6365 18.898 11.3093 18.898 10.8798V5.70544V5.25549V0.878742C18.898 0.449248 18.5503 0.101562 18.1208 0.101562ZM10.8603 8.13924V18.1403H0.859211V10.4912V10.4094V8.13924H10.8603ZM18.1412 10.8594H11.5966V8.13924C11.5966 7.7302 11.2693 7.38251 10.8398 7.38251H8.14016V0.837838H18.1412V5.23504V5.68499V10.8594Z" fill="#222222"/>
<path d="M10.8601 19H0.858988C0.38859 19 0 18.6114 0 18.141V8.13994C0 7.66954 0.38859 7.28095 0.858988 7.28095H7.3014V0.858988C7.3014 0.38859 7.68999 0 8.16039 0H18.141C18.6319 0 19.0205 0.38859 19.0205 0.87944V10.8601C19.0205 11.3305 18.6319 11.7191 18.1615 11.7191H11.7191V18.1615C11.7191 18.6114 11.3305 19 10.8601 19ZM0.858988 7.50592C0.511302 7.50592 0.204521 7.79225 0.204521 8.16039V18.1615C0.204521 18.5091 0.49085 18.8159 0.858988 18.8159H10.8601C11.2077 18.8159 11.5145 18.5296 11.5145 18.1615V11.5145H18.1615C18.5091 11.5145 18.8159 11.2282 18.8159 10.8601V0.87944C18.8159 0.511303 18.5091 0.204521 18.141 0.204521H8.13993C7.79225 0.204521 7.48547 0.49085 7.48547 0.858988V7.50592H0.858988ZM10.9623 18.2433H0.756728V8.03767H10.9623V18.2433ZM0.961249 18.0387H10.7578V8.2422H0.961249V18.0387ZM18.2433 10.9623H11.4941V8.13994C11.4941 7.79225 11.2077 7.48547 10.8396 7.48547H8.03767V0.736276H18.2433V10.9623ZM11.7191 10.7578H18.0592V0.961249H8.2422V7.3014H10.8601C11.3305 7.3014 11.7191 7.68999 11.7191 8.16039V10.7578Z" fill="#222222"/>
<path d="M3.21089 11.0839C3.61752 11.0839 3.94716 10.7542 3.94716 10.3476C3.94716 9.94097 3.61752 9.61133 3.21089 9.61133C2.80425 9.61133 2.47461 9.94097 2.47461 10.3476C2.47461 10.7542 2.80425 11.0839 3.21089 11.0839Z" fill="#222222"/>
<path d="M3.21158 11.1868C2.76164 11.1868 2.37305 10.8187 2.37305 10.3483C2.37305 9.8779 2.74118 9.50977 3.21158 9.50977C3.68198 9.50977 4.05012 9.8779 4.05012 10.3483C4.05012 10.8187 3.68198 11.1868 3.21158 11.1868ZM3.21158 9.71429C2.8639 9.71429 2.57757 10.0006 2.57757 10.3483C2.57757 10.696 2.8639 10.9823 3.21158 10.9823C3.55927 10.9823 3.8456 10.696 3.8456 10.3483C3.8456 10.0006 3.55927 9.71429 3.21158 9.71429Z" fill="#222222"/>
<path d="M3.21089 13.8651C3.61752 13.8651 3.94716 13.5355 3.94716 13.1289C3.94716 12.7222 3.61752 12.3926 3.21089 12.3926C2.80425 12.3926 2.47461 12.7222 2.47461 13.1289C2.47461 13.5355 2.80425 13.8651 3.21089 13.8651Z" fill="#222222"/>
<path d="M3.21158 13.9681C2.76164 13.9681 2.37305 13.5999 2.37305 13.1296C2.37305 12.6796 2.74118 12.291 3.21158 12.291C3.68198 12.291 4.05012 12.6592 4.05012 13.1296C4.05012 13.5795 3.68198 13.9681 3.21158 13.9681ZM3.21158 12.4955C2.8639 12.4955 2.57757 12.7819 2.57757 13.1296C2.57757 13.4772 2.8639 13.7636 3.21158 13.7636C3.55927 13.7636 3.8456 13.4772 3.8456 13.1296C3.8456 12.7819 3.55927 12.4955 3.21158 12.4955Z" fill="#222222"/>
<path d="M3.21089 16.6483C3.61752 16.6483 3.94716 16.3187 3.94716 15.9121C3.94716 15.5054 3.61752 15.1758 3.21089 15.1758C2.80425 15.1758 2.47461 15.5054 2.47461 15.9121C2.47461 16.3187 2.80425 16.6483 3.21089 16.6483Z" fill="#222222"/>
<path d="M3.21158 16.7513C2.76164 16.7513 2.37305 16.3832 2.37305 15.9128C2.37305 15.4424 2.74118 15.0742 3.21158 15.0742C3.68198 15.0742 4.05012 15.4424 4.05012 15.9128C4.05012 16.3832 3.68198 16.7513 3.21158 16.7513ZM3.21158 15.2787C2.8639 15.2787 2.57757 15.5651 2.57757 15.9128C2.57757 16.2604 2.8639 16.5468 3.21158 16.5468C3.55927 16.5468 3.8456 16.2604 3.8456 15.9128C3.8456 15.5651 3.55927 15.2787 3.21158 15.2787Z" fill="#222222"/>
<path d="M8.50776 11.0839C8.91439 11.0839 9.24404 10.7542 9.24404 10.3476C9.24404 9.94097 8.91439 9.61133 8.50776 9.61133C8.10113 9.61133 7.77148 9.94097 7.77148 10.3476C7.77148 10.7542 8.10113 11.0839 8.50776 11.0839Z" fill="#222222"/>
<path d="M8.50846 11.1868C8.05851 11.1868 7.66992 10.8187 7.66992 10.3483C7.66992 9.8779 8.03806 9.50977 8.50846 9.50977C8.97886 9.50977 9.34699 9.8779 9.34699 10.3483C9.34699 10.8187 8.9584 11.1868 8.50846 11.1868ZM8.50846 9.71429C8.16077 9.71429 7.87444 10.0006 7.87444 10.3483C7.87444 10.696 8.16077 10.9823 8.50846 10.9823C8.85614 10.9823 9.14247 10.696 9.14247 10.3483C9.14247 10.0006 8.85614 9.71429 8.50846 9.71429Z" fill="#222222"/>
<path d="M8.50776 13.8651C8.91439 13.8651 9.24404 13.5355 9.24404 13.1289C9.24404 12.7222 8.91439 12.3926 8.50776 12.3926C8.10113 12.3926 7.77148 12.7222 7.77148 13.1289C7.77148 13.5355 8.10113 13.8651 8.50776 13.8651Z" fill="#222222"/>
<path d="M8.50846 13.9681C8.05851 13.9681 7.66992 13.5999 7.66992 13.1296C7.66992 12.6796 8.03806 12.291 8.50846 12.291C8.97886 12.291 9.34699 12.6592 9.34699 13.1296C9.34699 13.5795 8.9584 13.9681 8.50846 13.9681ZM8.50846 12.4955C8.16077 12.4955 7.87444 12.7819 7.87444 13.1296C7.87444 13.4772 8.16077 13.7636 8.50846 13.7636C8.85614 13.7636 9.14247 13.4772 9.14247 13.1296C9.14247 12.7819 8.85614 12.4955 8.50846 12.4955Z" fill="#222222"/>
<path d="M8.50776 16.6483C8.91439 16.6483 9.24404 16.3187 9.24404 15.9121C9.24404 15.5054 8.91439 15.1758 8.50776 15.1758C8.10113 15.1758 7.77148 15.5054 7.77148 15.9121C7.77148 16.3187 8.10113 16.6483 8.50776 16.6483Z" fill="#222222"/>
<path d="M8.50846 16.7513C8.05851 16.7513 7.66992 16.3832 7.66992 15.9128C7.66992 15.4424 8.03806 15.0742 8.50846 15.0742C8.97886 15.0742 9.34699 15.4424 9.34699 15.9128C9.34699 16.3832 8.9584 16.7513 8.50846 16.7513ZM8.50846 15.2787C8.16077 15.2787 7.87444 15.5651 7.87444 15.9128C7.87444 16.2604 8.16077 16.5468 8.50846 16.5468C8.85614 16.5468 9.14247 16.2604 9.14247 15.9128C9.14247 15.5651 8.85614 15.2787 8.50846 15.2787Z" fill="#222222"/>
<path d="M13.1503 6.58388C13.557 6.58388 13.8866 6.25424 13.8866 5.8476C13.8866 5.44097 13.557 5.11133 13.1503 5.11133C12.7437 5.11133 12.4141 5.44097 12.4141 5.8476C12.4141 6.25424 12.7437 6.58388 13.1503 6.58388Z" fill="#222222"/>
<path d="M13.151 6.68684C12.7011 6.68684 12.3125 6.3187 12.3125 5.8483C12.3125 5.3779 12.6806 5.00977 13.151 5.00977C13.601 5.00977 13.9896 5.3779 13.9896 5.8483C13.9896 6.3187 13.601 6.68684 13.151 6.68684ZM13.151 5.23474C12.8034 5.23474 12.517 5.52107 12.517 5.86875C12.517 6.21644 12.8034 6.50277 13.151 6.50277C13.4987 6.50277 13.7851 6.21644 13.7851 5.86875C13.7851 5.52107 13.4987 5.23474 13.151 5.23474Z" fill="#222222"/>
</g>
<defs>
<clipPath id="clip0_90_7282">
<rect width="19" height="19" fill="white"/>
</clipPath>
</defs>
</svg>

<svg width="19" height="19" fill="none" xmlns="http://www.w3.org/2000/svg"><g clip-path="url(#clip0_90_7282)" fill="#222"><path d="M18.12.102H8.14a.755.755 0 00-.757.756v6.545H.84a.755.755 0 00-.757.757v10.022c0 .408.327.756.757.756h10c.41 0 .758-.327.758-.757v-6.545h6.544c.41 0 .757-.327.757-.756V.879a.777.777 0 00-.777-.777zm-7.26 8.037V18.14h-10v-10h10zm7.281 2.72h-6.544V8.14a.755.755 0 00-.757-.756h-2.7V.838h10.001v10.021z"/><path d="M10.86 19h-10a.864.864 0 01-.86-.859V8.14c0-.47.389-.86.859-.86h6.442V.86c0-.47.389-.859.86-.859h9.98c.49 0 .88.389.88.88v9.98c0 .47-.39.86-.86.86H11.72v6.441a.86.86 0 01-.859.839zM.86 7.506a.659.659 0 00-.654.654v10.002c0 .347.286.654.654.654h10a.659.659 0 00.655-.654v-6.647h6.646a.659.659 0 00.655-.655V.88a.68.68 0 00-.675-.675H8.14a.659.659 0 00-.655.654v6.647H.86zm10.103 10.737H.757V8.038h10.205v10.205zm-10-.204h9.796V8.242H.96v9.797zm17.281-7.077h-6.749V8.14a.66.66 0 00-.654-.655H8.038V.736h10.205v10.226zm-6.524-.204h6.34V.96H8.242V7.3h2.618c.47 0 .86.389.86.86v2.597z"/><path d="M3.21 11.084a.736.736 0 100-1.473.736.736 0 000 1.473z"/><path d="M3.212 11.187a.842.842 0 01-.839-.839.83.83 0 01.839-.838.83.83 0 01.838.838.83.83 0 01-.838.839zm0-1.473a.637.637 0 00-.634.634c0 .348.286.634.634.634a.637.637 0 00.634-.634.637.637 0 00-.634-.634zm-.002 4.151a.736.736 0 10.001-1.472.736.736 0 000 1.472z"/><path d="M3.212 13.968a.842.842 0 01-.839-.838c0-.45.368-.839.839-.839a.83.83 0 01.838.839c0 .45-.368.838-.838.838zm0-1.473a.637.637 0 00-.634.635c0 .347.286.634.634.634a.637.637 0 00.634-.634.637.637 0 00-.634-.635zm-.002 4.153a.736.736 0 10.001-1.472.736.736 0 000 1.472z"/><path d="M3.212 16.751a.842.842 0 01-.839-.838.83.83 0 01.839-.839.83.83 0 01.838.839.83.83 0 01-.838.838zm0-1.472a.637.637 0 00-.634.634c0 .347.286.634.634.634a.637.637 0 00.634-.634.637.637 0 00-.634-.634zm5.296-4.195a.736.736 0 100-1.473.736.736 0 000 1.473z"/><path d="M8.508 11.187a.842.842 0 01-.838-.839.83.83 0 01.838-.838.83.83 0 01.839.838c0 .47-.389.839-.839.839zm0-1.473a.637.637 0 00-.634.634c0 .348.287.634.634.634a.637.637 0 00.634-.634.637.637 0 00-.634-.634zm0 4.151a.736.736 0 100-1.472.736.736 0 000 1.472z"/><path d="M8.508 13.968a.842.842 0 01-.838-.838c0-.45.368-.839.838-.839a.83.83 0 01.839.839c0 .45-.389.838-.839.838zm0-1.473a.637.637 0 00-.634.635c0 .347.287.634.634.634a.637.637 0 00.634-.634.637.637 0 00-.634-.635zm0 4.153a.736.736 0 100-1.472.736.736 0 000 1.472z"/><path d="M8.508 16.751a.842.842 0 01-.838-.838.83.83 0 01.838-.839.83.83 0 01.839.839c0 .47-.389.838-.839.838zm0-1.472a.637.637 0 00-.634.634c0 .347.287.634.634.634a.637.637 0 00.634-.634.637.637 0 00-.634-.634zm4.642-8.695a.736.736 0 100-1.473.736.736 0 000 1.473z"/><path d="M13.151 6.687a.842.842 0 01-.838-.839.83.83 0 01.838-.838c.45 0 .839.368.839.838s-.389.839-.839.839zm0-1.452a.637.637 0 00-.634.634c0 .347.286.634.634.634a.637.637 0 00.634-.634.637.637 0 00-.634-.634z"/></g><defs><clipPath id="clip0_90_7282"><path fill="#fff" d="M0 0h19v19H0z"/></clipPath></defs></svg>
